communes/611.svg

<?xml version="1.0" encoding="UTF-8" standalone="no"?>
<svg
   xmlns:dc="http://purl.org/dc/elements/1.1/"
   xmlns:cc="http://creativecommons.org/ns#"
   xmlns:rdf="http://www.w3.org/1999/02/22-rdf-syntax-ns#"
   xmlns:svg="http://www.w3.org/2000/svg"
   xmlns="http://www.w3.org/2000/svg"
   xmlns:xlink="http://www.w3.org/1999/xlink"
   xmlns:sodipodi="http://sodipodi.sourceforge.net/DTD/sodipodi-0.dtd"
   xmlns:inkscape="http://www.inkscape.org/namespaces/inkscape"
   height="763"
   width="603"
   version="1.0"
   id="svg20"
   sodipodi:version="0.32"
   inkscape:version="0.46"
   sodipodi:docname="Kiesen-coat of arms.svg"
   sodipodi:docbase="C:\Users\Camilo\Documents\Escudos de Suiza"
   inkscape:output_extension="org.inkscape.output.svg.inkscape">
  <metadata
     id="metadata31">
    <rdf:RDF>
      <cc:Work
         rdf:about="">
        <dc:format>image/svg+xml</dc:format>
        <dc:type
           rdf:resource="http://purl.org/dc/dcmitype/StillImage" />
        <dc:date>05-AUG-2009</dc:date>
        <dc:creator>
          <cc:Agent>
            <dc:title>Juan G (aliman5040)</dc:title>
          </cc:Agent>
        </dc:creator>
        <cc:license
           rdf:resource="http://creativecommons.org/licenses/GPL/2.0/" />
        <dc:coverage />
        <dc:description></dc:description>
        <dc:subject>
          <rdf:Bag />
        </dc:subject>
        <dc:language></dc:language>
        <dc:title>Wappen Gemeinde Kiesen</dc:title>
      </cc:Work>
      <cc:License
         rdf:about="http://creativecommons.org/licenses/GPL/2.0/">
        <cc:permits
           rdf:resource="http://web.resource.org/cc/Reproduction" />
        <cc:permits
           rdf:resource="http://web.resource.org/cc/Distribution" />
        <cc:requires
           rdf:resource="http://web.resource.org/cc/Notice" />
        <cc:permits
           rdf:resource="http://web.resource.org/cc/DerivativeWorks" />
        <cc:requires
           rdf:resource="http://web.resource.org/cc/ShareAlike" />
        <cc:requires
           rdf:resource="http://web.resource.org/cc/SourceCode" />
      </cc:License>
    </rdf:RDF>
  </metadata>
  <defs
     id="defs29">
    <inkscape:perspective
       sodipodi:type="inkscape:persp3d"
       inkscape:vp_x="0 : 381.5 : 1"
       inkscape:vp_y="0 : 1000 : 0"
       inkscape:vp_z="603 : 381.5 : 1"
       inkscape:persp3d-origin="301.5 : 254.33333 : 1"
       id="perspective5149" />
    <linearGradient
       id="linearGradient2893">
      <stop
         style="stop-color:#ffffff;stop-opacity:0.3137255;"
         offset="0"
         id="stop2895" />
      <stop
         id="stop2897"
         offset="0.19"
         style="stop-color:#ffffff;stop-opacity:0.25098041;" />
      <stop
         style="stop-color:#6b6b6b;stop-opacity:0.1254902;"
         offset="0.60000002"
         id="stop2901" />
      <stop
         style="stop-color:#000000;stop-opacity:0.1254902;"
         offset="1"
         id="stop2899" />
    </linearGradient>
    <radialGradient
       inkscape:collect="always"
       xlink:href="#linearGradient2893"
       id="radialGradient3236"
       gradientUnits="userSpaceOnUse"
       gradientTransform="matrix(1.215027,1.531577e-24,1.464684e-23,1.266667,-839.1924,-490.4894)"
       cx="858.04236"
       cy="579.93323"
       fx="858.04236"
       fy="579.93323"
       r="300" />
    <inkscape:perspective
       id="perspective5197"
       inkscape:persp3d-origin="372.04724 : 350.78739 : 1"
       inkscape:vp_z="744.09448 : 526.18109 : 1"
       inkscape:vp_y="0 : 1000 : 0"
       inkscape:vp_x="0 : 526.18109 : 1"
       sodipodi:type="inkscape:persp3d" />
    <inkscape:perspective
       id="perspective8046"
       inkscape:persp3d-origin="372.04724 : 350.78739 : 1"
       inkscape:vp_z="744.09448 : 526.18109 : 1"
       inkscape:vp_y="0 : 1000 : 0"
       inkscape:vp_x="0 : 526.18109 : 1"
       sodipodi:type="inkscape:persp3d" />
    <inkscape:perspective
       id="perspective3263"
       inkscape:persp3d-origin="372.04724 : 350.78739 : 1"
       inkscape:vp_z="744.09448 : 526.18109 : 1"
       inkscape:vp_y="0 : 1000 : 0"
       inkscape:vp_x="0 : 526.18109 : 1"
       sodipodi:type="inkscape:persp3d" />
  </defs>
  <sodipodi:namedview
     inkscape:window-height="720"
     inkscape:window-width="1280"
     inkscape:pageshadow="2"
     inkscape:pageopacity="0.0"
     guidetolerance="10.0"
     gridtolerance="10.0"
     objecttolerance="10.0"
     borderopacity="1.0"
     bordercolor="#666666"
     pagecolor="#ffffff"
     id="base"
     inkscape:zoom="0.36025281"
     inkscape:cx="295.09402"
     inkscape:cy="459.77185"
     inkscape:window-x="-8"
     inkscape:window-y="-8"
     inkscape:current-layer="layer2"
     showgrid="true"
     showguides="true">
    <inkscape:grid
       type="xygrid"
       id="grid5151" />
  </sodipodi:namedview>
  <g
     inkscape:groupmode="layer"
     id="layer1"
     inkscape:label="Fond écu"
     style="display:inline"
     sodipodi:insensitive="true">
    <path
       id="path1899"
       d="M 1.5,1.49998 L 1.5,460.3679 C 1.5,626.6785 135.81456,761.5 301.49999,761.5 C 467.18543,761.5 601.5,626.6785 601.5,460.3679 L 601.5,1.49998 L 1.5,1.49998 z"
       style="fill:#fcef3c;fill-opacity:1" />
  </g>
  <g
     inkscape:groupmode="layer"
     id="layer2"
     inkscape:label="Meubles"
     style="display:inline"
     sodipodi:insensitive="true">
    <path
       style="fill:#e20909;fill-opacity:1;fill-rule:evenodd;stroke:#000000;stroke-width:4.33477831;stroke-miterlimit:4;stroke-dasharray:none;stroke-opacity:1"
       d="M 520.00002,602.99999 C 591.1606,563.44201 540.78732,462.91383 589.33263,411.16464 C 562.17641,424.34492 537.56359,440.79523 524.31096,471.85153 C 532.98051,424.16897 569.93359,406.95587 571.99352,367.81686 C 574.26836,324.59509 553.78762,290.6184 571.99352,250.77784 C 551.01683,269.48696 533.31338,290.10542 524.31096,315.79952 C 541.65007,367.81686 519.97618,393.82552 502.63706,419.83419 C 519.97618,393.82552 541.65007,367.81686 524.31096,315.79952 C 498.30229,250.77784 550.31962,246.44307 506.97184,172.75184 C 513.13516,285.89809 428.94583,250.77784 489.63273,367.81686 C 466.7989,373.62975 454.9545,354.81252 446.28495,341.80819 C 446.28495,398.1603 480.96317,432.83853 480.96317,497.8602 C 480.96317,506.52976 480.96317,523.86887 498.30229,523.86887 C 480.96317,523.86887 480.96317,506.52976 480.96317,497.8602 C 476.62839,480.52109 454.9545,445.84286 441.95017,445.84286 C 459.28928,476.18631 407.98267,515.31744 460.00001,563 L 520.00002,602.99999 z"
       id="path3601"
       sodipodi:nodetypes="cccsccccccccccccc" />
    <path
       sodipodi:nodetypes="cccsccccccccccccc"
       id="path4373"
       d="M 89.999991,593 C 18.839405,553.44203 62.212719,462.91383 13.667408,411.16464 C 40.823623,424.34492 65.43645,440.79523 78.689081,471.85153 C 70.019524,424.16897 33.06645,406.95587 31.00652,367.81686 C 28.731672,324.59509 49.212416,290.6184 31.00652,250.77784 C 51.983206,269.48696 69.686657,290.10542 78.689081,315.79952 C 61.349968,367.81686 83.023859,393.82552 100.36297,419.83419 C 83.023859,393.82552 61.349968,367.81686 78.689081,315.79952 C 113.0793,237.1578 66.680055,223.69363 96.028193,172.75184 C 103.90323,253.50186 176.87202,244.27516 113.36731,367.81686 C 136.20114,373.62975 148.04553,354.81252 156.71509,341.80819 C 156.71509,398.1603 122.03686,432.83853 122.03686,497.8602 C 122.03686,506.52976 122.03686,523.86887 104.69775,523.86887 C 122.03686,523.86887 122.03686,506.52976 122.03686,497.8602 C 126.37164,480.52109 148.04553,445.84286 161.04987,445.84286 C 143.71075,476.18631 192.01735,515.31744 140.00001,563 L 89.999991,593 z"
       style="fill:#e20909;fill-opacity:1;fill-rule:evenodd;stroke:#000000;stroke-width:4.33477831;stroke-miterlimit:4;stroke-dasharray:none;stroke-opacity:1" />
    <path
       style="fill:#000000;fill-opacity:1;fill-rule:evenodd;stroke:#000000;stroke-width:4.33477831;stroke-miterlimit:4;stroke-dasharray:none;stroke-opacity:1"
       d="M 355.25461,341.80819 L 428.94583,341.80819 C 446.28495,428.50375 424.61106,532.53843 303.23727,532.53843 C 199.20259,532.53843 173.19392,441.35507 173.19392,346.14296 C 173.19392,281.12129 255.55471,138.07361 363.92416,203.09528 L 411.60672,107.73016 C 350.91983,115.4778 290.23293,124.73962 229.54604,107.73016 L 186.19826,194.42573 L 134.18092,194.42573 L 212.20692,29.704156 C 310.46191,60.827343 420.27628,47.043269 506.97184,21.0346 L 385.59805,285.45607 C 346.01251,190.20547 249.8211,212.91156 255.55471,341.80819 C 257.86536,393.75357 238.21559,489.19065 303.23727,489.19065 C 368.25894,489.19065 357.07274,405.56484 355.25461,341.80819 z"
       id="path4375"
       sodipodi:nodetypes="ccssccccccccszc" />
    <g
       style="display:inline"
       id="g3594"
       transform="translate(4.99e-4,-1.4032996e-4)">
      <path
         style="fill:#5ab532;fill-opacity:1;fill-rule:evenodd;stroke:#000000;stroke-width:3;stroke-miterlimit:4;stroke-dasharray:none;stroke-opacity:1"
         d="M 299.9995,534.00014 C 262.92801,534.34263 219.9995,563.00014 220.28125,592.21873 C 159.9995,548.00014 93.412821,553.91215 61.062501,640.46873 C 90.872626,680.49907 130.36408,712.85779 176.0625,733.99998 C 227.38091,754.6146 279.50328,764.02197 332.6875,759.87498 C 419.50542,750.87706 495.30336,704.70755 544.09375,637.49998 C 516.36862,571.97516 469.9995,553.00014 387,592.21873 C 384.9995,568.00014 339.9995,532.00014 299.9995,534.00014 z"
         id="path5343"
         sodipodi:nodetypes="cccccccc" />
      <path
         sodipodi:nodetypes="ccc"
         id="path5345"
         d="M 220.33686,591.49639 C 217.95232,653.61774 270.73988,698.19884 301.49996,757.77063 C 335.26793,699.79611 389.38831,661.88778 386.9995,591.00014"
         style="fill:none;fill-opacity:1;fill-rule:evenodd;stroke:#000000;stroke-width:3;stroke-miterlimit:4;stroke-dasharray:none;stroke-opacity:1" />
    </g>
  </g>
  <g
     inkscape:groupmode="layer"
     id="layer3"
     inkscape:label="Reflet final"
     style="display:inline"
     sodipodi:insensitive="true">
    <path
       style="fill:url(#radialGradient3236);fill-opacity:1"
       d="M 1.5,1.5 L 1.5,460.3679 C 1.5,626.67854 135.81454,761.5 301.49993,761.5 C 467.1854,761.5 601.5,626.67854 601.5,460.3679 L 601.5,1.5 L 1.5,1.5 z "
       id="path2346" />
  </g>
  <g
     inkscape:groupmode="layer"
     id="layer4"
     inkscape:label="Contour final"
     style="display:inline"
     sodipodi:insensitive="true">
    <path
       style="fill:none;fill-opacity:1;stroke:#000000;stroke-width:3;stroke-miterlimit:4;stroke-dasharray:none;stroke-opacity:1"
       d="M 1.5,1.5 L 1.5,460.36794 C 1.5,626.67854 135.81454,761.5 301.49993,761.5 C 467.1854,761.5 601.5,626.67854 601.5,460.36794 L 601.5,1.5 L 1.5,1.5 z "
       id="path3239" />
  </g>
</svg>

<?xml version="1.0" encoding="UTF-8"?>
<svg version="1.0" viewBox="0 0 603 763" xmlns="http://www.w3.org/2000/svg" xmlns:cc="http://creativecommons.org/ns#" xmlns:dc="http://purl.org/dc/elements/1.1/" xmlns:rdf="http://www.w3.org/1999/02/22-rdf-syntax-ns#" xmlns:xlink="http://www.w3.org/1999/xlink">
<metadata>
<rdf:RDF>
<cc:Work rdf:about="">
<dc:format>image/svg+xml</dc:format>
<dc:type rdf:resource="http://purl.org/dc/dcmitype/StillImage"/>
<dc:date>05-AUG-2009</dc:date>
<dc:creator>
<cc:Agent>
<dc:title>Juan G (aliman5040)</dc:title>
</cc:Agent>
</dc:creator>
<cc:license rdf:resource="http://creativecommons.org/licenses/GPL/2.0/"/>
<dc:coverage/>
<dc:description/>
<dc:subject>
<rdf:Bag/>
</dc:subject>
<dc:language/>
<dc:title>Wappen Gemeinde Kiesen</dc:title>
</cc:Work>
<cc:License rdf:about="http://creativecommons.org/licenses/GPL/2.0/">
<cc:permits rdf:resource="http://web.resource.org/cc/Reproduction"/>
<cc:permits rdf:resource="http://web.resource.org/cc/Distribution"/>
<cc:requires rdf:resource="http://web.resource.org/cc/Notice"/>
<cc:permits rdf:resource="http://web.resource.org/cc/DerivativeWorks"/>
<cc:requires rdf:resource="http://web.resource.org/cc/ShareAlike"/>
<cc:requires rdf:resource="http://web.resource.org/cc/SourceCode"/>
</cc:License>
</rdf:RDF>
</metadata>
<defs>
<radialGradient id="a" cx="858.04" cy="579.93" r="300" gradientTransform="matrix(1.215 1.5316e-24 1.4647e-23 1.2667 -839.19 -490.49)" gradientUnits="userSpaceOnUse">
<stop stop-color="#fff" stop-opacity=".31373" offset="0"/>
<stop stop-color="#fff" stop-opacity=".25098" offset=".19"/>
<stop stop-color="#6b6b6b" stop-opacity=".12549" offset=".6"/>
<stop stop-opacity=".12549" offset="1"/>
</radialGradient>
</defs>
<g>
<path d="m1.5 1.5v458.87c0 166.31 134.31 301.13 300 301.13 165.69 0 300-134.82 300-301.13v-458.87h-600z" fill="#fcef3c"/>
<path d="m520 603c71.161-39.558 20.787-140.09 69.333-191.84-27.156 13.18-51.769 29.631-65.022 60.687 8.6696-47.683 45.623-64.896 47.683-104.03 2.2748-43.222-18.206-77.198 0-117.04-20.977 18.709-38.68 39.328-47.683 65.022 17.339 52.017-4.3348 78.026-21.674 104.03 17.339-26.009 39.013-52.017 21.674-104.03-26.009-65.022 26.009-69.356-17.339-143.05 6.1633 113.15-78.026 78.026-17.339 195.07-22.834 5.8129-34.678-13.004-43.348-26.009 0 56.352 34.678 91.03 34.678 156.05 0 8.6696 0 26.009 17.339 26.009-17.339 0-17.339-17.339-17.339-26.009-4.3348-17.339-26.009-52.017-39.013-52.017 17.339 30.343-33.968 69.475 18.05 117.16l60 40z" fill="#e20909" fill-rule="evenodd" stroke="#000" stroke-width="4.3348"/>
<path d="m90 593c-71.161-39.558-27.787-130.09-76.333-181.84 27.156 13.18 51.769 29.631 65.022 60.687-8.6696-47.683-45.623-64.896-47.683-104.03-2.2748-43.222 18.206-77.198 0-117.04 20.977 18.709 38.68 39.328 47.683 65.022-17.339 52.017 4.3348 78.026 21.674 104.03-17.339-26.009-39.013-52.017-21.674-104.03 34.39-78.642-12.009-92.106 17.339-143.05 7.875 80.75 80.844 71.523 17.339 195.07 22.834 5.8129 34.678-13.004 43.348-26.009 0 56.352-34.678 91.03-34.678 156.05 0 8.6696 0 26.009-17.339 26.009 17.339 0 17.339-17.339 17.339-26.009 4.3348-17.339 26.009-52.017 39.013-52.017-17.339 30.343 30.967 69.475-21.05 117.16l-50 30z" fill="#e20909" fill-rule="evenodd" stroke="#000" stroke-width="4.3348"/>
<path d="m355.25 341.81h73.691c17.339 86.696-4.3348 190.73-125.71 190.73-104.03 0-130.04-91.183-130.04-186.4 0-65.022 82.361-208.07 190.73-143.05l47.683-95.365c-60.687 7.7476-121.37 17.009-182.06 0l-43.348 86.696h-52.017l78.026-164.72c98.255 31.123 208.07 17.339 294.76-8.6696l-121.37 264.42c-39.586-95.251-135.78-72.545-130.04 56.352 2.3106 51.945-17.339 147.38 47.683 147.38 65.022 0 53.835-83.626 52.017-147.38z" fill-rule="evenodd" stroke="#000" stroke-width="4.3348"/>
<g transform="translate(.000499 -.00014033)" stroke="#000" stroke-width="3">
<path d="m300 534c-37.071 0.34249-80 29-79.718 58.219-60.282-44.219-126.87-38.307-159.22 48.25 29.81 40.03 69.302 72.389 115 93.531 51.318 20.615 103.44 30.022 156.62 25.875 86.818-8.9979 162.62-55.167 211.41-122.38-27.725-65.525-74.094-84.5-157.09-45.281-2.0005-24.219-47-60.219-87-58.219z" fill="#5ab532" fill-rule="evenodd"/>
<path d="m220.34 591.5c-2.3845 62.121 50.403 106.7 81.163 166.27 33.768-57.975 87.888-95.883 85.5-166.77" fill="none"/>
</g>
<path d="m1.5 1.5v458.87c0 166.31 134.31 301.13 300 301.13 165.69 0 300-134.82 300-301.13v-458.87h-600z" fill="url(#a)"/>
<path d="m1.5 1.5v458.87c0 166.31 134.31 301.13 300 301.13 165.69 0 300-134.82 300-301.13v-458.87h-600z" fill="none" stroke="#000" stroke-width="3"/>
</g>
</svg>
